X: 92
T: Rory O'More
C: Samuel Lover
O: Ireland, 1837
M: 6/8
L: 1/8
Z: John Chambers <jc:trillian.mit.edu>
K: G
 e \
| "G"dGG BGG | dGG    G2e |     dcB BAG | "D7"FAA ABc \
| "G"dGG BGG | dBd "C"edc | "D7"Bcd def | "G"gGG G2 :|
|: g \
| "Em"gfe edB | "Am"cBA "B7"G2F | "Em"EFG GAB | Bed "D"def \
| "Em"gfe edB | "Am"cBA "B7"G2F | "Em"EFG GAB | Bed "D7"d2 :|

%%sep 1 1 500

